doc/images/logo-filmreel.svg

<?xml version="1.0" encoding="UTF-8" standalone="no"?>
<svg
   xmlns:dc="http://purl.org/dc/elements/1.1/"
   xmlns:cc="http://creativecommons.org/ns#"
   xmlns:rdf="http://www.w3.org/1999/02/22-rdf-syntax-ns#"
   xmlns:svg="http://www.w3.org/2000/svg"
   xmlns="http://www.w3.org/2000/svg"
   xmlns:sodipodi="http://sodipodi.sourceforge.net/DTD/sodipodi-0.dtd"
   xmlns:inkscape="http://www.inkscape.org/namespaces/inkscape"
   viewBox="0 0 511.99997 511.99997"
   version="1.1"
   id="svg14"
   sodipodi:docname="logo-filmreel.svg"
   width="512"
   height="512"
   inkscape:export-filename="C:\dev\djv-git\doc\images\logo-filmreel.png"
   inkscape:export-xdpi="10.55"
   inkscape:export-ydpi="10.55"
   inkscape:version="0.92.3 (2405546, 2018-03-11)">
  <metadata
     id="metadata18">
    <rdf:RDF>
      <cc:Work
         rdf:about="">
        <dc:format>image/svg+xml</dc:format>
        <dc:type
           rdf:resource="http://purl.org/dc/dcmitype/StillImage" />
        <dc:title>logo-filmreel</dc:title>
      </cc:Work>
    </rdf:RDF>
  </metadata>
  <sodipodi:namedview
     pagecolor="#ffffff"
     bordercolor="#666666"
     borderopacity="1"
     objecttolerance="10"
     gridtolerance="10"
     guidetolerance="10"
     inkscape:pageopacity="0"
     inkscape:pageshadow="2"
     inkscape:window-width="1920"
     inkscape:window-height="1137"
     id="namedview16"
     showgrid="false"
     inkscape:zoom="1.2851562"
     inkscape:cx="262.22492"
     inkscape:cy="263.00304"
     inkscape:window-x="1912"
     inkscape:window-y="-8"
     inkscape:window-maximized="1"
     inkscape:current-layer="svg14" />
  <defs
     id="defs4">
    <style
       id="style2">.cls-1{fill:#070707;}.cls-1,.cls-2{stroke:#000;stroke-miterlimit:10;}.cls-2{fill:#353535;}</style>
  </defs>
  <title
     id="title6">logo-filmreel</title>
  <path
     style="color:#000000;clip-rule:nonzero;display:inline;overflow:visible;visibility:visible;opacity:1;isolation:auto;mix-blend-mode:normal;color-interpolation:sRGB;color-interpolation-filters:linearRGB;solid-color:#000000;solid-opacity:1;fill:#f0f0f0;fill-opacity:1;fill-rule:nonzero;stroke:#1e1e1e;stroke-width:12;stroke-linecap:square;stroke-linejoin:miter;stroke-miterlimit:4;stroke-dasharray:none;stroke-dashoffset:0;stroke-opacity:1;color-rendering:auto;image-rendering:auto;shape-rendering:auto;text-rendering:auto;enable-background:accumulate"
     d="M 256,36 A 220.00021,220.00021 0 0 0 36,256 220.00021,220.00021 0 0 0 256,476 220.00021,220.00021 0 0 0 476,256 220.00021,220.00021 0 0 0 256,36 Z"
     id="path4539" />
  <path
     style="color:#000000;clip-rule:nonzero;display:inline;overflow:visible;visibility:visible;opacity:1;isolation:auto;mix-blend-mode:normal;color-interpolation:sRGB;color-interpolation-filters:linearRGB;solid-color:#000000;solid-opacity:1;fill:#1e1e1e;fill-opacity:1;fill-rule:nonzero;stroke:#1e1e1e;stroke-width:12;stroke-linecap:square;stroke-linejoin:miter;stroke-miterlimit:4;stroke-dasharray:none;stroke-dashoffset:0;stroke-opacity:1;color-rendering:auto;image-rendering:auto;shape-rendering:auto;text-rendering:auto;enable-background:accumulate"
     d="m 254.92188,75.283203 a 45.727103,45.727103 0 0 1 40.67968,22.849609 45.727103,45.727103 0 0 1 -16.73828,62.464848 45.727103,45.727103 0 0 1 -62.46484,-16.73633 45.727103,45.727103 0 0 1 16.73828,-62.464846 45.727103,45.727103 0 0 1 21.78516,-6.113281 z"
     id="path4537" />
  <path
     style="color:#000000;clip-rule:nonzero;display:inline;overflow:visible;visibility:visible;opacity:1;isolation:auto;mix-blend-mode:normal;color-interpolation:sRGB;color-interpolation-filters:linearRGB;solid-color:#000000;solid-opacity:1;fill:#1e1e1e;fill-opacity:1;fill-rule:nonzero;stroke:#1e1e1e;stroke-width:12;stroke-linecap:square;stroke-linejoin:miter;stroke-miterlimit:4;stroke-dasharray:none;stroke-dashoffset:0;stroke-opacity:1;color-rendering:auto;image-rendering:auto;shape-rendering:auto;text-rendering:auto;enable-background:accumulate"
     d="m 138.32227,142.60156 a 45.727098,45.727098 0 0 1 40.67968,22.85156 45.727098,45.727098 0 0 1 -16.73828,62.4629 45.727098,45.727098 0 0 1 -62.464842,-16.73633 45.727098,45.727098 0 0 1 16.738282,-62.46485 45.727098,45.727098 0 0 1 21.78516,-6.11328 z"
     id="path4535" />
  <path
     style="color:#000000;clip-rule:nonzero;display:inline;overflow:visible;visibility:visible;opacity:1;isolation:auto;mix-blend-mode:normal;color-interpolation:sRGB;color-interpolation-filters:linearRGB;solid-color:#000000;solid-opacity:1;fill:#1e1e1e;fill-opacity:1;fill-rule:nonzero;stroke:#1e1e1e;stroke-width:12;stroke-linecap:square;stroke-linejoin:miter;stroke-miterlimit:4;stroke-dasharray:none;stroke-dashoffset:0;stroke-opacity:1;color-rendering:auto;image-rendering:auto;shape-rendering:auto;text-rendering:auto;enable-background:accumulate"
     d="m 371.52148,142.60156 a 45.727108,45.727108 0 0 1 40.67969,22.85156 45.727108,45.727108 0 0 1 -16.73828,62.4629 45.727108,45.727108 0 0 1 -62.46484,-16.73633 45.727108,45.727108 0 0 1 16.73828,-62.46485 45.727108,45.727108 0 0 1 21.78515,-6.11328 z"
     id="path4533" />
  <path
     style="color:#000000;clip-rule:nonzero;display:inline;overflow:visible;visibility:visible;opacity:1;isolation:auto;mix-blend-mode:normal;color-interpolation:sRGB;color-interpolation-filters:linearRGB;solid-color:#000000;solid-opacity:1;fill:#1e1e1e;fill-opacity:1;fill-rule:nonzero;stroke:#1e1e1e;stroke-width:12;stroke-linecap:square;stroke-linejoin:miter;stroke-miterlimit:4;stroke-dasharray:none;stroke-dashoffset:0;stroke-opacity:1;color-rendering:auto;image-rendering:auto;shape-rendering:auto;text-rendering:auto;enable-background:accumulate"
     d="m 255.33008,227.65234 a 28.355214,28.355214 0 0 1 25.22656,14.16993 28.355214,28.355214 0 0 1 -10.37891,38.73437 28.355214,28.355214 0 0 1 -38.73437,-10.37891 28.355214,28.355214 0 0 1 10.37891,-38.73437 28.355214,28.355214 0 0 1 13.50781,-3.79102 z"
     id="path4531" />
  <path
     style="color:#000000;clip-rule:nonzero;display:inline;overflow:visible;visibility:visible;opacity:1;isolation:auto;mix-blend-mode:normal;color-interpolation:sRGB;color-interpolation-filters:linearRGB;solid-color:#000000;solid-opacity:1;fill:#1e1e1e;fill-opacity:1;fill-rule:nonzero;stroke:#1e1e1e;stroke-width:12;stroke-linecap:square;stroke-linejoin:miter;stroke-miterlimit:4;stroke-dasharray:none;stroke-dashoffset:0;stroke-opacity:1;color-rendering:auto;image-rendering:auto;shape-rendering:auto;text-rendering:auto;enable-background:accumulate"
     d="m 138.32227,277.23828 a 45.727093,45.727093 0 0 1 40.67968,22.85156 45.727093,45.727093 0 0 1 -16.73828,62.46485 45.727093,45.727093 0 0 1 -62.464842,-16.73828 45.727093,45.727093 0 0 1 16.738282,-62.46485 45.727093,45.727093 0 0 1 21.78516,-6.11328 z"
     id="path4529" />
  <path
     style="color:#000000;clip-rule:nonzero;display:inline;overflow:visible;visibility:visible;opacity:1;isolation:auto;mix-blend-mode:normal;color-interpolation:sRGB;color-interpolation-filters:linearRGB;solid-color:#000000;solid-opacity:1;fill:#1e1e1e;fill-opacity:1;fill-rule:nonzero;stroke:#1e1e1e;stroke-width:12;stroke-linecap:square;stroke-linejoin:miter;stroke-miterlimit:4;stroke-dasharray:none;stroke-dashoffset:0;stroke-opacity:1;color-rendering:auto;image-rendering:auto;shape-rendering:auto;text-rendering:auto;enable-background:accumulate"
     d="m 371.52148,277.23828 a 45.727083,45.727083 0 0 1 40.67969,22.85156 45.727083,45.727083 0 0 1 -16.73828,62.46485 45.727083,45.727083 0 0 1 -62.46484,-16.73828 45.727083,45.727083 0 0 1 16.73828,-62.46485 45.727083,45.727083 0 0 1 21.78515,-6.11328 z"
     id="path4527" />
  <path
     style="color:#000000;clip-rule:nonzero;display:inline;overflow:visible;visibility:visible;opacity:1;isolation:auto;mix-blend-mode:normal;color-interpolation:sRGB;color-interpolation-filters:linearRGB;solid-color:#000000;solid-opacity:1;fill:#1e1e1e;fill-opacity:1;fill-rule:nonzero;stroke:#1e1e1e;stroke-width:12;stroke-linecap:square;stroke-linejoin:miter;stroke-miterlimit:4;stroke-dasharray:none;stroke-dashoffset:0;stroke-opacity:1;color-rendering:auto;image-rendering:auto;shape-rendering:auto;text-rendering:auto;enable-background:accumulate"
     d="m 254.91992,344.55664 a 45.727088,45.727088 0 0 1 0.002,0 45.727088,45.727088 0 0 1 40.67968,22.85156 45.727088,45.727088 0 0 1 -16.73828,62.46485 45.727088,45.727088 0 0 1 -62.46484,-16.73828 45.727088,45.727088 0 0 1 16.73828,-62.46289 45.727088,45.727088 0 0 1 21.7832,-6.11524 z"
     id="path830" />
</svg>

<?xml version="1.0" encoding="UTF-8" standalone="no"?>
<svg
   xmlns:dc="http://purl.org/dc/elements/1.1/"
   xmlns:cc="http://creativecommons.org/ns#"
   xmlns:rdf="http://www.w3.org/1999/02/22-rdf-syntax-ns#"
   xmlns:svg="http://www.w3.org/2000/svg"
   xmlns="http://www.w3.org/2000/svg"
   xmlns:sodipodi="http://sodipodi.sourceforge.net/DTD/sodipodi-0.dtd"
   xmlns:inkscape="http://www.inkscape.org/namespaces/inkscape"
   viewBox="0 0 511.99997 511.99997"
   version="1.1"
   id="svg14"
   sodipodi:docname="logo-filmreel.svg"
   width="512"
   height="512"
   inkscape:export-filename="/Users/darby/Projects/djv-git/doc/images/logo-filmreel.png"
   inkscape:export-xdpi="10.55"
   inkscape:export-ydpi="10.55"
   inkscape:version="0.91 r13725">
  <metadata
     id="metadata18">
    <rdf:RDF>
      <cc:Work
         rdf:about="">
        <dc:format>image/svg+xml</dc:format>
        <dc:type
           rdf:resource="http://purl.org/dc/dcmitype/StillImage" />
        <dc:title>logo-filmreel</dc:title>
      </cc:Work>
    </rdf:RDF>
  </metadata>
  <sodipodi:namedview
     pagecolor="#ffffff"
     bordercolor="#666666"
     borderopacity="1"
     objecttolerance="10"
     gridtolerance="10"
     guidetolerance="10"
     inkscape:pageopacity="0"
     inkscape:pageshadow="2"
     inkscape:window-width="1259"
     inkscape:window-height="893"
     id="namedview16"
     showgrid="false"
     inkscape:zoom="1.2851562"
     inkscape:cx="262.22492"
     inkscape:cy="263.00304"
     inkscape:window-x="27"
     inkscape:window-y="23"
     inkscape:window-maximized="0"
     inkscape:current-layer="svg14" />
  <defs
     id="defs4">
    <style
       id="style2">.cls-1{fill:#070707;}.cls-1,.cls-2{stroke:#000;stroke-miterlimit:10;}.cls-2{fill:#353535;}</style>
  </defs>
  <title
     id="title6">logo-filmreel</title>
  <path
     style="color:#000000;clip-rule:nonzero;display:inline;overflow:visible;visibility:visible;opacity:1;isolation:auto;mix-blend-mode:normal;color-interpolation:sRGB;color-interpolation-filters:linearRGB;solid-color:#000000;solid-opacity:1;fill:#f0f0f0;fill-opacity:1;fill-rule:nonzero;stroke:#1e1e1e;stroke-width:12;stroke-linecap:square;stroke-linejoin:miter;stroke-miterlimit:4;stroke-dasharray:none;stroke-dashoffset:0;stroke-opacity:1;color-rendering:auto;image-rendering:auto;shape-rendering:auto;text-rendering:auto;enable-background:accumulate"
     d="M 256 36 A 220.00021 220.00021 0 0 0 36 256 A 220.00021 220.00021 0 0 0 256 476 A 220.00021 220.00021 0 0 0 476 256 A 220.00021 220.00021 0 0 0 256 36 z M 254.92188 75.283203 A 45.727103 45.727103 0 0 1 295.60156 98.132812 A 45.727103 45.727103 0 0 1 278.86328 160.59766 A 45.727103 45.727103 0 0 1 216.39844 143.86133 A 45.727103 45.727103 0 0 1 233.13672 81.396484 A 45.727103 45.727103 0 0 1 254.92188 75.283203 z M 138.32227 142.60156 A 45.727098 45.727098 0 0 1 179.00195 165.45312 A 45.727098 45.727098 0 0 1 162.26367 227.91602 A 45.727098 45.727098 0 0 1 99.798828 211.17969 A 45.727098 45.727098 0 0 1 116.53711 148.71484 A 45.727098 45.727098 0 0 1 138.32227 142.60156 z M 371.52148 142.60156 A 45.727108 45.727108 0 0 1 412.20117 165.45312 A 45.727108 45.727108 0 0 1 395.46289 227.91602 A 45.727108 45.727108 0 0 1 332.99805 211.17969 A 45.727108 45.727108 0 0 1 349.73633 148.71484 A 45.727108 45.727108 0 0 1 371.52148 142.60156 z M 255.33008 227.65234 A 28.355214 28.355214 0 0 1 280.55664 241.82227 A 28.355214 28.355214 0 0 1 270.17773 280.55664 A 28.355214 28.355214 0 0 1 231.44336 270.17773 A 28.355214 28.355214 0 0 1 241.82227 231.44336 A 28.355214 28.355214 0 0 1 255.33008 227.65234 z M 138.32227 277.23828 A 45.727093 45.727093 0 0 1 179.00195 300.08984 A 45.727093 45.727093 0 0 1 162.26367 362.55469 A 45.727093 45.727093 0 0 1 99.798828 345.81641 A 45.727093 45.727093 0 0 1 116.53711 283.35156 A 45.727093 45.727093 0 0 1 138.32227 277.23828 z M 371.52148 277.23828 A 45.727083 45.727083 0 0 1 412.20117 300.08984 A 45.727083 45.727083 0 0 1 395.46289 362.55469 A 45.727083 45.727083 0 0 1 332.99805 345.81641 A 45.727083 45.727083 0 0 1 349.73633 283.35156 A 45.727083 45.727083 0 0 1 371.52148 277.23828 z M 254.91992 344.55664 A 45.727088 45.727088 0 0 1 254.92188 344.55664 A 45.727088 45.727088 0 0 1 295.60156 367.4082 A 45.727088 45.727088 0 0 1 278.86328 429.87305 A 45.727088 45.727088 0 0 1 216.39844 413.13477 A 45.727088 45.727088 0 0 1 233.13672 350.67188 A 45.727088 45.727088 0 0 1 254.91992 344.55664 z "
     id="path830" />
</svg>
